// "Arpoon"
// @license CC BY-NC-SA 4.0 https://creativecommons.org/licenses/by-nc-sa/4.0/
// @by Felix Roos

useRNG('legacy')

samples('github:tidalcycles/dirt-samples')

n("[0,3] 2 [1,3] 2".fast(3).lastOf(4, fast(2))).clip(2)
  .offset("<<1 2> 2 1 1>")
  .chord("<<Am7 C^7> C7 F^7 [Fm7 E7b9]>")
  .dict('lefthand').voicing()
  .add(perlin.range(0,0.2).add("<-12 0>/8").note())
  .cutoff(perlin.range(500,4000)).resonance(12)
  .gain("<.5 .8>*16")
  .decay(.16).sustain(0.5)
  .delay(.2)
  .room(.5).pan(sine.range(.3,.6))
  .s('piano')
  .stack(
    "<<A1 C2>!2 F2 F2>"
    .add.out("0 -5".fast(2))
    .add("0,.12").note()
    .s('sawtooth').cutoff(180)
    .lpa(.1).lpenv(2)
  )
  .slow(4)
  .stack(s("bd*4, [~ [hh hh? hh?]]*2,~ [sd ~ [sd:2? bd?]]").bank('RolandTR909').gain(.5).slow(2))
